src/assets/icons/building.svg

<svg width="14" height="14" viewBox="0 0 14 14" fill="none" xmlns="http://www.w3.org/2000/svg">
<g id="building">
<path id="Vector" fill-rule="evenodd" clip-rule="evenodd" d="M2.40002 0.6C2.40002 0.268629 2.66865 0 3.00002 0H11C11.3314 0 11.6 0.268629 11.6 0.6V12.8H12C12.3314 12.8 12.6 13.0686 12.6 13.4C12.6 13.7314 12.3314 14 12 14H11H3.00002H2.00002C1.66865 14 1.40002 13.7314 1.40002 13.4C1.40002 13.0686 1.66865 12.8 2.00002 12.8H2.40002V0.6ZM10.4 1.2V12.8H6.20002V11C6.20002 10.776 6.02402 10.6 5.80002 10.6H5.00002C4.77602 10.6 4.60002 10.776 4.60002 11V12.8H3.60002V1.2H10.4ZM5.00002 2.2H5.80002C6.02094 2.2 6.20002 2.37909 6.20002 2.6V3.4C6.20002 3.62091 6.02094 3.8 5.80002 3.8H5.00002C4.77911 3.8 4.60002 3.62091 4.60002 3.4V2.6C4.60002 2.37909 4.77911 2.2 5.00002 2.2ZM9.00002 2.2H8.20002C7.97911 2.2 7.80002 2.37909 7.80002 2.6V3.4C7.80002 3.62091 7.97911 3.8 8.20002 3.8H9.00002C9.22094 3.8 9.40002 3.62091 9.40002 3.4V2.6C9.40002 2.37909 9.22094 2.2 9.00002 2.2ZM5.00002 5H5.80002C6.02094 5 6.20002 5.17909 6.20002 5.4V6.2C6.20002 6.42091 6.02094 6.6 5.80002 6.6H5.00002C4.77911 6.6 4.60002 6.42091 4.60002 6.2V5.4C4.60002 5.17909 4.77911 5 5.00002 5ZM9.00002 5H8.20002C7.97911 5 7.80002 5.17909 7.80002 5.4V6.2C7.80002 6.42091 7.97911 6.6 8.20002 6.6H9.00002C9.22094 6.6 9.40002 6.42091 9.40002 6.2V5.4C9.40002 5.17909 9.22094 5 9.00002 5ZM5.00002 7.8H5.80002C6.02094 7.8 6.20002 7.97909 6.20002 8.2V9C6.20002 9.22091 6.02094 9.4 5.80002 9.4H5.00002C4.77911 9.4 4.60002 9.22091 4.60002 9V8.2C4.60002 7.97909 4.77911 7.8 5.00002 7.8ZM9.00002 7.8H8.20002C7.97911 7.8 7.80002 7.97909 7.80002 8.2V9C7.80002 9.22091 7.97911 9.4 8.20002 9.4H9.00002C9.22094 9.4 9.40002 9.22091 9.40002 9V8.2C9.40002 7.97909 9.22094 7.8 9.00002 7.8Z" fill="black"/>
</g>
</svg>

<svg xmlns="http://www.w3.org/2000/svg" fill="none" viewBox="0 0 14 14"><path fill="#000" fill-rule="evenodd" d="M2.4.6A.6.6 0 0 1 3 0h8a.6.6 0 0 1 .6.6v12.2h.4a.6.6 0 1 1 0 1.2H2a.6.6 0 1 1 0-1.2h.4zm8 .6v11.6H6.2V11c0-.224-.176-.4-.4-.4H5c-.224 0-.4.176-.4.4v1.8h-1V1.2zM5 2.2h.8c.22 0 .4.18.4.4v.8a.4.4 0 0 1-.4.4H5a.4.4 0 0 1-.4-.4v-.8c0-.22.18-.4.4-.4m4 0h-.8a.4.4 0 0 0-.4.4v.8c0 .22.18.4.4.4H9a.4.4 0 0 0 .4-.4v-.8a.4.4 0 0 0-.4-.4M5 5h.8c.22 0 .4.18.4.4v.8a.4.4 0 0 1-.4.4H5a.4.4 0 0 1-.4-.4v-.8c0-.22.18-.4.4-.4m4 0h-.8a.4.4 0 0 0-.4.4v.8c0 .22.18.4.4.4H9a.4.4 0 0 0 .4-.4v-.8A.4.4 0 0 0 9 5M5 7.8h.8c.22 0 .4.18.4.4V9a.4.4 0 0 1-.4.4H5a.4.4 0 0 1-.4-.4v-.8c0-.22.18-.4.4-.4m4 0h-.8a.4.4 0 0 0-.4.4V9c0 .22.18.4.4.4H9a.4.4 0 0 0 .4-.4v-.8a.4.4 0 0 0-.4-.4" clip-rule="evenodd"/></svg>
